X: 172
T: Song zhangfu
%%abc-version 2.0
%%abcx-abcm2ps-target-version 5.9.1 (29 Sep 2008)
%%abc-creator hum2abc beta
%%abcx-conversion-date 2013/10/02 07:52:29
%%abc-edited-by Helmut Schaffrath
%%humdrum-veritas 719972991
%%humdrum-veritas-data 2533382557
%%continueall 1
%%barnumbers 0
L: 1/16
M: 3/4
K: E
e c B AF4 [I:setbarnb 1]| 
e c B AF4 | 
B2 B e A F A c | 
B8 | 
A2 A B e f e c | 
B6A2 | 
F2 F2 B c B A | 
F2> A2 F A F E | 
F4=D2 E2 | 
F8 | 
B4C E C B, | 
A2> B2 c A F E | 
C E F G E E2 C | 
B,8 |]  



